X: 15950
T: Granny In The Wood, The
R: polka
M: 2/4
K: Gmajor
DG G/B/A/G/|FA A/B/c/d/|edcA|ed d/c/d/d/|
DG G/B/A/G/|FA A/B/c/d/|edcA|G2 G2:|
g2 g2 fe/d/|ed/B/ GB/d/|edcA|ed de/f/|
g2 g2 fe/d/|ed/B/ GB/d/|edcA|G2 G2:|

